static/app-icons/dark-theme/CloudHybridLink.svg

<svg xmlns="http://www.w3.org/2000/svg" viewBox="0 0 32 32"><defs><linearGradient id="linear-gradient" x1="4" y1="16" x2="28" y2="16" gradientUnits="userSpaceOnUse"><stop offset="0" stop-opacity="0"/><stop offset=".25"/><stop offset=".75"/><stop offset="1" stop-opacity="0"/></linearGradient><linearGradient id="linear-gradient-2" y1="32" x2="32" gradientUnits="userSpaceOnUse"><stop offset=".1" stop-color="#3ddbd9"/><stop offset=".9" stop-color="#4589ff"/></linearGradient><style>.cls-5{fill:#f4f4f4}</style><mask id="mask" x="0" y="0" width="32" height="32" maskUnits="userSpaceOnUse"><path d="M18 27H8a6 6 0 010-12h16a4 4 0 000-8H14V5h10a6 6 0 010 12H8a4 4 0 000 8h10z" fill="#fff"/><path fill="url(#linear-gradient)" d="M4 11h24v10H4z"/></mask></defs><g id="Layer_2" data-name="Layer 2"><g id="Dark_theme_icons" data-name="Dark theme icons"><g mask="url(#mask)"><path fill="url(#linear-gradient-2)" d="M0 0h32v32H0z"/></g><path class="cls-5" d="M15 17.59L12.41 15 11 16.412l4 4 7-7L20.59 12 15 17.59zM6 10a4 4 0 114-4 4 4 0 01-4 4zm0-6a2 2 0 102 2 2 2 0 00-2-2zM26 30a4 4 0 114-4 4 4 0 01-4 4zm0-6a2 2 0 102 2 2 2 0 00-2-2z"/></g></g></svg>

<svg xmlns="http://www.w3.org/2000/svg" xmlns:xlink="http://www.w3.org/1999/xlink" viewBox="0 0 32 32"><defs><style>.cls-1{fill:#fff;}.cls-2{fill:url(#linear-gradient);}.cls-3{mask:url(#mask);}.cls-4{fill:url(#linear-gradient-2);}.cls-5{fill:#f4f4f4;}</style><linearGradient id="linear-gradient" x1="4" y1="16" x2="28" y2="16" gradientUnits="userSpaceOnUse"><stop offset="0" stop-opacity="0"/><stop offset="0.25"/><stop offset="0.75"/><stop offset="1" stop-opacity="0"/></linearGradient><mask id="mask" x="0" y="0" width="32" height="32" maskUnits="userSpaceOnUse"><path class="cls-1" d="M18,27H8A6,6,0,0,1,8,15H24a4,4,0,0,0,0-8H14V5H24a6,6,0,0,1,0,12H8a4,4,0,0,0,0,8H18Z"/><rect class="cls-2" x="4" y="11" width="24" height="10"/></mask><linearGradient id="linear-gradient-2" y1="32" x2="32" gradientUnits="userSpaceOnUse"><stop offset="0.1" stop-color="#3ddbd9"/><stop offset="0.9" stop-color="#4589ff"/></linearGradient></defs><g id="Layer_2" data-name="Layer 2"><g id="Dark_theme_icons" data-name="Dark theme icons"><g class="cls-3"><rect class="cls-4" width="32" height="32"/></g><polygon class="cls-5" points="15 17.59 12.41 15 11 16.412 15 20.412 22 13.412 20.59 12 15 17.59"/><path class="cls-5" d="M6,10a4,4,0,1,1,4-4A4,4,0,0,1,6,10ZM6,4A2,2,0,1,0,8,6,2,2,0,0,0,6,4Z"/><path class="cls-5" d="M26,30a4,4,0,1,1,4-4A4,4,0,0,1,26,30Zm0-6a2,2,0,1,0,2,2A2,2,0,0,0,26,24Z"/></g></g></svg>
